material/.icons/material/trello.svg

<svg xmlns="http://www.w3.org/2000/svg" viewBox="0 0 24 24"><path d="M19.5 2h-15A2.5 2.5 0 002 4.5v15A2.5 2.5 0 004.5 22h15a2.5 2.5 0 002.5-2.5v-15A2.5 2.5 0 0019.5 2m-8.8 15.2a1.2 1.2 0 01-1.2 1.2H5.8c-.66 0-1.2-.54-1.2-1.2V5.8a1.2 1.2 0 011.2-1.2h3.7c.66 0 1.2.54 1.2 1.2v11.4m8.7-5c0 .66-.54 1.2-1.2 1.2h-3.7c-.66 0-1.2-.54-1.2-1.2V5.8c0-.66.54-1.2 1.2-1.2h3.7c.66 0 1.2.54 1.2 1.2v6.4z"/></svg>

<?xml version="1.0" encoding="UTF-8"?><!DOCTYPE svg PUBLIC "-//W3C//DTD SVG 1.1//EN" "http://www.w3.org/Graphics/SVG/1.1/DTD/svg11.dtd"><svg xmlns="http://www.w3.org/2000/svg" xmlns:xlink="http://www.w3.org/1999/xlink" version="1.1" id="mdi-trello" width="24" height="24" viewBox="0 0 24 24"><path d="M19.5,2H4.5A2.5,2.5 0 0,0 2,4.5V19.5A2.5,2.5 0 0,0 4.5,22H19.5A2.5,2.5 0 0,0 22,19.5V4.5A2.5,2.5 0 0,0 19.5,2M10.7,17.2A1.2,1.2 0 0,1 9.5,18.4H5.8C5.14,18.4 4.6,17.86 4.6,17.2V5.8A1.2,1.2 0 0,1 5.8,4.6H9.5C10.16,4.6 10.7,5.14 10.7,5.8V17.2M19.4,12.2C19.4,12.86 18.86,13.4 18.2,13.4H14.5C13.84,13.4 13.3,12.86 13.3,12.2V5.8C13.3,5.14 13.84,4.6 14.5,4.6H18.2C18.86,4.6 19.4,5.14 19.4,5.8V12.2Z" /></svg>
